X:1
T:Solveigas dziesma
T:Solveigas dziesma
T:Edvard Grieg
C:Edward Grieg
%%score 1 { ( 2 4 5 ) | 3 } 6 { ( 7 9 ) | ( 8 10 ) }
L:1/8
Q:1/4=70
M:4/4
K:C
V:1 treble nm="Anna" snm="Anna"
V:2 treble nm="Accordion" snm="Acc."
V:4 treble 
V:5 treble 
V:3 bass 
V:6 treble transpose=-9 nm="Alto Saxophone" snm="A. Sax."
V:7 treble nm="Piano" snm="Pno."
V:9 treble 
V:8 bass 
V:10 bass 
V:1
 z8 | z8 | z8 | z8 | z8 | z8 | z8 | z8 | z2 z2 z2"_cantabile" (E2 | A2 Bc d2 ef) | (fe)ec A2 (Ac) | %11
 (cB)B^G G<E- E2- | E2 z2 z2 E2 | A(ABc d2 ef) | (fe)(ec) A2 (Ac) | cBBG G<E- E2- | E2 z2 z2 z E | %17
 (E^GBc A2 e^d | B2 d^c A3 A | cBBA e3) E |!<(! E^GBc Aee^d!<)! |!f!!>(! BBd^c A3 A | %22
 c3 B B3 A!>)! |!p! A4- A z e2 ||[K:A][M:3/4][Q:1/4=100]"^\n" (e>f e>d c>d | e2) (e4- | %26
 e>f e>d c>d | e6-) | e z (f4- | fe ec A2) | (cB BG EG | Ac e4) | e2 (g3 f) | (fe ec A2) | %34
 cB BG EG | BE GB (3EGB | A4 a2- | a2 !fermata!c'4 | z4 z2 |[K:C][M:4/4][Q:1/4=70] z8 | %40
 z2 z2 z2!mf! (E2 | A2 Bc d2 ef) | (fe)ec A2 (Ac) | (cB)B^G G<E- E2- | E2 z2 z2 E2 | A(ABc d2 ef) | %46
 (fe)(ec) A2 (Ac) | cBBG G<E- E2- | E2 z2 z2 z E | (E^GBc A2 e^d | B2 d^c A3 A | cBBA e3) E | %52
!<(! E^GBc Aee^d!<)! |!f!!>(! BBd^c A3 A | c3 B B3 A!>)! |!p! A4- A z e2 || %56
[K:A][M:3/4][Q:1/4=100] (e>f e>d c>d | e2) e4- | (e>f e>d c>d | e6- | e) z4 z | z6 | z6 | z6 | z6 | %65
 z6 | z6 | z6 | z6 |[Q:1/4=100] z6[Q:1/4=97]"^.7"[Q:1/4=95]"^.5"[Q:1/4=89]"^.4"[Q:1/4=87]"^.9" | %70
[Q:1/4=86]"^.4" z6[Q:1/4=81]"^.8" | z6[Q:1/4=68]"^.2"[Q:1/4=63]"^.6" | z4 z2 || %73
[K:C][M:4/4][Q:1/4=70] z8 | z8 | z8 | z8 | z8 | z8 | z8 |] %80
V:2
!p! E4 CE!<(!AB- | BB/A/ G4 z2 | (G4 EGcd-!<)! |!mf! dB e4- e) z |!p! (B,2 E4- E) z | z8 | %6
!pp! [e^gbe']4 z4 |!mp!!>(! z2 [CEA]2 z2 [CEA]2 | z2 [CEA]2 z2!>)! E2 |!p! z2 [CEA]2 z2 [B,E^G]2 | %10
 z2 [CEA]2 z2 [CE]2 | z2 [B,E^G]2 z4 | [cea]4 z4 | x2 [CEA]2 x2 [DGB]2 | x2 [EGc]2 z2 [CF]2 | %15
 x2 [B,F]2 E4 | [egc']4 z2 z2 | z2 E2 z2 E2 | [^DA]2 [=D^G]2 [^CE]2 =G2 | ^F2 =F2 E3 z | %20
!<(! D2 [E^G]2 [Ec]2 [EA]2!<)! |!f!!>(! [_EA]2 [DA]2 [^C=E]2 [=CE]2 | F4 E2 D2!>)! | %23
 A,4- A, z z2 ||[K:A][M:3/4]!pp! E4 d2 | E4 c2 | E4 d2 | E4 c2 | E4 d2 | E4 c2 | E4 d2 | E4 c2 | %32
 E4 d2 | E2- E2 c2 | d4- d2 | d6 | c2 d2 c2 | d2 [ea]4 | z4 z2 | %39
[K:C][M:4/4]!mp! z2 [CEA]2 z2 [CEA]2 | z2 [CEA]2 z2!mp! (E2 | A2 Bc d2 ef) | (fe)ec A2 (Ac) | %43
 (cB)B^G G<E- E2- | E2 z2 z2 E2 | A(ABc d2 ef) | (fe)(ec) A2 (Ac) | cBBG G<E- E2 | [ceg]4 z4 | %49
 (E^GBc A2 e^d | B2 d^c A3 A | cBBA e3) E |!<(! E^GBc Aee^d!<)! |!f!!>(! BBd^c A3 A | %54
 c3 B B3 A!>)! |!p! A4- A z z2 ||[K:A][M:3/4] z6 | z6 | z6 | z6 | z6 | z6 | (ed dB GB | ce g4) | %64
 B2 (e3 d) | (dc cA A2) | B2 (g3 f) | (fe ec A2) | g4- g2- | g2- [Gg]4 | [A-ce]4 A2- | A2 z4 | %72
 z6 ||[K:C][M:4/4]!mf! E4 CE!<(!AB-!<)! | BB/A/ G4 z2 |!f! (C4 A,CF!>(!G-!>)! | GE A4- A) z | %77
!p! (E,2 A,4- A,) z | z8 |!pp! !fermata![Acea]8 |] %80
V:3
 z8 | z8 | z8 | z8 | z8 |!p! (B,,2 E,4- E,) z | z8 | z8 | z8 | z8 | z8 | z8 | z8 | z8 | z8 | z8 | %16
 z8 | z8 | z8 | z8 | z8 | z8 | z8 | z8 ||[K:A][M:3/4] z6 | z6 | z6 | z6 | z6 | z6 | z6 | z6 | z6 | %33
 z6 | z6 | z6 | z6 | z2 z4 | z4 z2 |[K:C][M:4/4] A,,2 z2 A,,2 z2 | A,,2 z2 A,,2 z2 | %41
 A,,2 z2 A,,2 z2 | A,,2 z2 C,2 z2 | E,2 z2 z2 z2 | z8 | A,2 z2 G,2 z2 | C2 z2 F,2 D,2 | %47
 G,2 z2 C,2 z2 | z8 | D4 C4 | B,2 _B,2 A,2 ^D,2 | D,2 z2 E,2 z2 | D,4 C,4 | F,4 E,4 | E,4 E,4 | %55
 A,,4 z4 ||[K:A][M:3/4] z6 | z6 | z6 | z6 | z6 | z6 | z6 | z6 | z6 | z6 | z6 | z6 | z6 | z6 | z6 | %71
 z6 | z4 z2 ||[K:C][M:4/4] z8 | z8 | z8 | z8 | z8 | z8 | z8 |] %80
V:4
 x8 | x8 | x8 | x8 | x8 | x8 | z4 x4 | x8 | x8 | x8 | x8 | x8 | x8 | x8 | x8 | x8 | x8 | x8 | x8 | %19
 x8 | x8 | x8 | x8 | x8 ||[K:A][M:3/4] x6 | x6 | x6 | x6 | x6 | x6 | x6 | x6 | x6 | x6 | x6 | x6 | %36
 x6 | x6 | x6 |[K:C][M:4/4] x8 | x8 | x8 | x8 | x8 | x8 | x8 | x8 | x8 | z2 z2 z2 z E | x8 | x8 | %51
 x8 | x8 | x8 | x8 | x8 ||[K:A][M:3/4] x6 | x6 | x6 | x6 | x6 | x6 | x6 | x6 | x6 | x6 | x6 | x6 | %68
 x4 e2- | e2- e4 | z6 | x6 | x6 ||[K:C][M:4/4] x8 | x8 | x8 | x8 | x8 | x8 | x8 |] %80
V:5
 x8 | x8 | x8 | x8 | x8 | x8 | x8 | x8 | x8 | x8 | x8 | x8 | x8 | x8 | x8 | x8 | x8 | x8 | x8 | %19
 x8 | x8 | x8 | x8 | x8 ||[K:A][M:3/4] x6 | x6 | x6 | x6 | x6 | x6 | x6 | x6 | x6 | x6 | x6 | x6 | %36
 x6 | x6 | x6 |[K:C][M:4/4] x8 | x8 | x8 | x8 | x8 | [cea]4 z4 | x8 | x8 | x8 | x8 | x8 | x8 | x8 | %52
 x8 | x8 | x8 | x8 ||[K:A][M:3/4] x6 | x6 | x6 | x6 | x6 | x6 | x6 | x6 | x6 | x6 | x6 | x6 | x6 | %69
 x6 | x6 | x6 | x6 ||[K:C][M:4/4] x8 | x8 | x8 | x8 | x8 | x8 | x8 |] %80
V:6
 z8 | z8 | z8 | z8 | z8 | z8 | z8 | z8 | z8 | z8 | z8 | z8 | z8 | z8 | z8 | z8 | z8 | z8 | z8 | %19
 z8 | z8 | z8 | z8 | z8 ||[K:A][M:3/4] z6 | z6 | z6 | z6 | z6 | z6 | z6 | z6 | z6 | z6 | z6 | z6 | %36
 z6 | z2 z4 | z4 z2 |[K:C][M:4/4] z8 |!mp! z4 z2 ^c2 | z2 ^c2 z2 ^e2 | z2 ^f2 z2 f2 | z2 ^e2 ^f4- | %44
 f4 z4 | z2 ^f2 z2 ^g2 | z2 a2 d2 B2 | z2 d2 ^c4- | c4 z4 | B4 A4 | ^B2 =B2 ^A2 e2 | %51
 ^d2 =d2 ^c3 z |!<(! b2 ^e2 a2 ^f2!<)! |!f!!>(! c2 B2 ^A2 ^c2 | B4 B4!>)! |!p! ^F4- F z z2 || %56
[K:A][M:3/4] z6 | z6 | z6 | z6 | z6 | z6 | z6 | z2 z2 f2 | ^e2 z2 e2 | f2 z2 f2 | ^d2 z2 d2 | %67
 c2 z2 c2 | G6- | G6 | F4 z2 | z2 z4 | z4 z2 ||[K:C][M:4/4] z8 | z8 | z8 | z8 | z8 | z8 | z8 |] %80
V:7
!p! E4 CE!<(!AB- | BB/A/ G4 z2 | (G4 EGcd-!<)! |!mf! dB e4- e) z |!p! (B,2 E4-) E z | z8 | %6
 [e^gbe']4 z4 |!mf!!>(! z2 [CEA]2 z2 [CEA]2 | z2 [CEA]2 z2!>)! E2 |!p! z2 [CEA]2 z2 [B,E^G]2 | %10
 z2 [CEA]2 z2 [CE]2 | z2 [B,E^G]2 z4 | E2 z2 z2 x2 | x2 [CEA]2 x2 [DGB]2 | x2 [EGc]2 x2 F2 | %15
 x2 [B,F]2 x4 | [egc']4 z2 z2 | x2 E2 x2 [EA]2 | [^DA]2 [=D^G]2 ^C2 =G2 | ([D^F]2 [D=F]2) E3 x | %20
!<(! z2 E2 [A,E]2 [EA]2!<)! |!f!!>(! [^DA]2 [=DA]2 ^C2 =C2 | z8!>)! | z8 ||[K:A][M:3/4] z6 | z6 | %26
 z6 | z6 | z6 | z6 | z6 | z6 | z6 | z6 | z6 | z6 | z6 | z2 !fermata![ac'a']4 | z4 z2 | %39
[K:C][M:4/4]!mf! z2 [CEA]2 z2 [CEA]2 | z2 [CEA]2 z2 E2 |!mp! z2 [CEA]2 z2 [B,E^G]2 | %42
 z2 [CEA]2 z2 [CE]2 | z2 [B,E^G]2 z4 | [Acea]4 z2 x2 | x2 [CEA]2 x2 [DGB]2 | x2 [EGc]2 x2 [CF]2 | %47
 x2 [B,F]2 x4 | E2 z2 z2 z2 | x2 E2 x2 [EA]2 | [^DA]2 [=D^G]2 ^C2 =G2 | ([D^F]2 [D=F]2) E3 x | %52
!<(! z2 E2 [A,E]2 [EA]2!<)! |!f!!>(! [^DA]2 [=DA]2 ^C2 =C2 | z8!>)! | z2 z2 z2 e'2 || %56
[K:A][M:3/4]!p! (e'>f' e'>d' c'>d' | e'2) (e'4- | e'>f' e'>d' c'>d' | e'6-) | e' z (f'4- | %61
 f'e' e'c' a2) | (c'b bg eg | ac' e'4-) | e'2 (g'3 f') | (f'e' e'c' a2) | b2 (e'3 d') | %67
 (d'c' c'a e2) | (c'b bg eg |"_poco rit." be gb (3egb) | a4 a2- | a2!8va(! a'2- a'2 | %72
 [a'c''a'']4!8va)! z2 ||[K:C][M:4/4]!mf! E4 CE!<(!AB-!<)! | BB/A/ G4 z2 | (C4!>(! A,CFG-!>)! | %76
 GE A4- A) z |!p! (E,2 A,4- A,) z | z8 |[K:treble] !fermata![Acea]8 |] %80
V:8
 z8 | z8 | z8 | z8 | z8 |!pp! ([B,,,B,,]2 [E,,E,]4- [E,,E,]) z | z8 | [A,,E,]4 [A,,E,]4 | %8
 [A,,E,]4 [A,,E,]2 [E,C]2 | [A,,E,]4 [A,,E,]4 | [A,,E,]4 C,4 | E,4 [A,,E,]4 |[K:treble] z8 | %13
[K:bass] A,4 G,4 | C4 F,2 [D,C]2 | G,4 [C,G,]4- | [C,G,]4 z2 z2 | D4 C4 | B,2 _B,2 A,4 | %19
 [D,A,]4 [^G,B,]3 z | [D,,D,]4 [C,,C,]4 | [F,,F,]4 [E,,E,]4 | (([E,,A,DF]4 [^G,DE]2) [^F,D]2) | %23
!p! [A,,,A,,-E,-]4 [A,,E,] z z2 ||[K:A][M:3/4] [A,,E,]4 [E,D]2 | [A,,E,]4 [E,C]2 | %26
 [A,,E,]4 [E,D]2 | [A,,E,]4 [E,C]2 | [A,,E,]4 [E,D]2 | [A,,E,]4 [E,C]2 | [A,,E,]4 [E,D]2 | %31
 [A,,E,]4 [E,C]2 | [A,,E,]4 [E,D]2 | [A,,E,]4 [E,C]2 | !arpeggio![A,,E,D]4- [A,,E,D]2 | %35
 !arpeggio![A,,E,D]6 | E,2 F,2 E2 | F2[K:treble] !fermata![Ae]4 | z4 z2 | %39
[K:C][M:4/4][K:bass] [A,,E,]4 [A,,E,]4 | [A,,E,]4 [A,,E,]2 [E,C]2 | [A,,E,]4 [A,,E,]4 | %42
 [A,,E,]4 C,4 | E,4 [A,,E,]2[K:treble] [A,CA]2- | [A,CA]4- [A,CA]2 z2 |[K:bass] A,4 G,4 | %46
 C4 F,2 D,2 | G,4 [C,G,]4- | [C,G,]4 z2 z2 | D4 C4 | B,2 _B,2 A,2 ^D,2 | [D,A,]4 [^G,B,]3 z | %52
 [D,,D,]4 [C,,C,]4 | [F,,F,]4 [E,,E,]4 | (([A,DF]4 [^G,DE]2) [^F,D]2) | %55
!p! [A,,,A,,-E,-]4 [A,,E,] z z2 ||[K:A][M:3/4][K:treble] [A,E]4 [A,E]2 | [A,E]4 [A,E]2 | %58
 [A,E]4 [A,E]2 | [A,E]4 [A,E]2 | [A,E]4 [A,E]2 | [A,E]4 [A,E]2 | [A,E]4 [A,E]2 | [A,E]4 [A,E]2 | %64
 [A,E]4 [A,E]2 | [A,E]4 [A,E]2 | [A,E]4 [A,E]2 | [A,E]4 [A,E]2 | [A,B,E]4- [A,B,E]2 | [A,B,E]6 | %70
 E2 F2 e2 | f2 z2 z2 | a4 z2 ||[K:C][M:4/4][K:bass] z8 | z8 |!f! z8 | z8 | z8 | %78
!pp! ([E,,,E,,]2 [A,,,A,,]4- [A,,,A,,]) z | z8 |] %80
V:9
 x8 | x8 | x8 | x8 | x8 | x8 | [EB]4 x4 | x8 | x8 | x8 | x8 | x8 | x8 | x8 | x8 | x8 | x8 | x8 | %18
 x8 | x8 | x8 | x8 | x8 | x8 ||[K:A][M:3/4] G4 G2 | A4 A2 | G4 G2 | A4 A2 | G4 G2 | A4 A2 | G4 E2 | %31
 A4 A2 | G4 G2 | A4 A2 | G4 z2 | x6 | C2 D2 c2 | d2 z4 | x6 |[K:C][M:4/4] x8 | x8 | x8 | x8 | x8 | %44
 x8 | x8 | x8 | x8 | x8 | x8 | x8 | x8 | x8 | x8 | x8 | x8 ||[K:A][M:3/4] g4 g2 | a4 a2 | g4 g2 | %59
 a4 a2 | g4 g2 | a4 a2 | g4 e2 | a4 a2 | g4 g2 | a4 a2 | g4 g2 | a4 a2 | a4 e2 | x6 | (c2 d2) (c2 | %71
 d2)!8va(! (c'2 d'2) | z4!8va)! x2 ||[K:C][M:4/4] x8 | x8 | x8 | x8 | x8 | x8 |[K:treble] x8 |] %80
V:10
 x8 | x8 | x8 | x8 | x8 | x8 | x8 | x8 | x8 | x8 | x8 | x8 |[K:treble] x8 |[K:bass] x8 | x8 | x8 | %16
 x8 | x8 | x8 | x8 | x2 ^G,2 x4 | x8 | x8 | x8 ||[K:A][M:3/4] x6 | x6 | x6 | x6 | x6 | x6 | x6 | %31
 x6 | x6 | x6 | x6 | x6 | A,,4 A,2- | A,2[K:treble] z4 | x6 |[K:C][M:4/4][K:bass] x8 | x8 | x8 | %42
 x8 | x6[K:treble] x2 | x8 |[K:bass] x8 | x8 | x8 | x8 | D4 C4 | x8 | x8 | x2 ^G,2 x4 | x8 | %54
 E,,4 E,,4 | z8 ||[K:A][M:3/4][K:treble] x6 | x6 | x6 | x6 | x6 | x6 | x6 | x6 | x6 | x6 | x6 | %67
 x6 | x6 | x6 | A,4 A2- | A2 z4 | z4 x2 ||[K:C][M:4/4][K:bass] x8 | x8 | x8 | x8 | x8 | x8 | x8 |] %80

